assets/img/feature-tools.svg

<?xml version="1.0" encoding="UTF-8"?>
<svg width="48px" height="48px" viewBox="0 0 48 48" version="1.1" xmlns="http://www.w3.org/2000/svg" xmlns:xlink="http://www.w3.org/1999/xlink">
    <!-- Generator: Sketch 63.1 (92452) - https://sketch.com -->
    <title>icon_1</title>
    <desc>Created with Sketch.</desc>
    <g id="Page-1" stroke="none" stroke-width="1" fill="none" fill-rule="evenodd">
        <g id="landing" transform="translate(-128.000000, -457.000000)" fill-rule="nonzero">
            <g id="Group-1" transform="translate(128.000000, 457.000000)">
                <g id="icon_1">
                    <rect id="Rectangle" fill="#F5ECE9" x="0" y="0" width="48" height="48" rx="24"></rect>
                    <path d="M29.9324702,11 C25.489026,11 21.8649403,14.5945601 21.8649403,19.0018033 C21.8649403,19.7129016 22.0540231,20.35367 22.2273499,20.9866266 L21.7388852,21.4711098 L17.8311754,17.5874226 L17.8311754,14.4460886 L17.3584686,14.1569615 L12.6471582,11.2344288 L10,13.813134 L13.2301623,19.0018033 L16.405177,19.0018033 L20.3207647,22.8776768 L12.9622961,30.1761977 C11.3944846,31.7312341 11.3944846,34.2786842 12.9622961,35.8337227 C14.5301056,37.3887591 17.0984803,37.3887591 18.6662918,35.8337227 L23.8818228,30.6606808 L29.0973558,35.8337227 C30.6651652,37.3887591 33.23354,37.3887591 34.8013515,35.8337227 C36.3691609,34.2786842 36.3691609,31.7312341 34.8013515,30.1761977 L31.445132,26.8473214 C35.171637,26.1440389 38,22.8933063 38,19.0018033 C38,17.6655642 37.6375924,16.4230982 37.0703443,15.3369154 L36.4321885,14.1257044 L35.463141,15.0946728 L31.1299941,19.3847016 L29.5464268,17.8140356 L34.8486212,12.5472247 L33.6274614,11.9220838 C32.5323587,11.359457 31.2796851,11 29.9324702,11 Z M29.9324702,13.0004508 C30.3894211,13.0004508 30.7833425,13.2192501 31.2166575,13.3286508 L26.6944279,17.8140356 L31.1299941,22.2134651 L35.6601017,17.7280783 C35.762521,18.1578631 35.9831175,18.5485772 35.9831175,19.0018033 C35.9831175,22.3306795 33.2886896,25.0031558 29.9324702,25.0031558 C29.2391668,25.0031558 28.5773773,24.8625001 27.9155877,24.6280713 L27.3168257,24.4249015 L17.2402914,34.4193399 C16.4445687,35.2085818 15.1840172,35.2085818 14.3882945,34.4193399 C13.5925719,33.6301 13.5925719,32.3798183 14.3882945,31.5905784 L24.4648289,21.596138 L24.2599883,21.0022542 C24.0236358,20.3458562 23.8818228,19.6894583 23.8818228,19.0018033 C23.8818228,15.6729291 26.5762527,13.0004508 29.9324702,13.0004508 Z M12.9307823,13.7662494 L15.814293,15.5557147 L15.814293,16.8372535 L15.6488461,17.0013525 L14.3646587,17.0013525 L12.5604948,14.1178907 L12.9307823,13.7662494 Z M27.9313456,26.6441517 C28.1361842,26.69885 28.3410249,26.7457365 28.5458635,26.8004369 L33.375351,31.5905784 C34.1710757,32.3798183 34.1710757,33.6301 33.375351,34.4193399 C32.5796284,35.2085818 31.3190769,35.2085818 30.5233542,34.4193399 L25.3078212,29.2463001 L27.9313456,26.6441517 Z" id="Shape" fill="#BC7962"></path>
                </g>
            </g>
        </g>
    </g>
</svg>

<svg width="48" height="48" viewBox="0 0 48 48" xmlns="http://www.w3.org/2000/svg">
    <rect fill="#F5ECE9" width="48" height="48" rx="24"/>
    <path d="M29.9325 11c-4.4435 0-8.0676 3.5946-8.0676 8.0018 0 .7111.1891 1.3519.3624 1.9848l-.4884.4845-3.9077-3.8837v-3.1413l-.4727-.2891-4.7113-2.9226L10 13.8131l3.2302 5.1887h3.175l3.9156 3.8759-7.3585 7.2985c-1.5678 1.555-1.5678 4.1025 0 5.6575 1.5678 1.555 4.1362 1.555 5.704 0l5.2155-5.173 5.2156 5.173c1.5678 1.555 4.1361 1.555 5.704 0 1.5678-1.555 1.5678-4.1025 0-5.6575l-3.3563-3.3289C35.1716 26.144 38 22.8933 38 19.0018c0-1.3362-.3624-2.5787-.9297-3.6649l-.6381-1.2112-.969.969-4.3332 4.29-1.5836-1.5707 5.3022-5.2668-1.2211-.6251C32.5324 11.3595 31.2797 11 29.9325 11zm0 2.0005c.457 0 .8508.2188 1.2842.3282l-4.5223 4.4853 4.4356 4.3995L35.66 17.728c.1024.4298.323.8205.323 1.2737 0 3.3289-2.6944 6.0014-6.0506 6.0014-.6933 0-1.3551-.1407-2.017-.3751l-.5987-.2032-10.0765 9.9944c-.7957.7893-2.0563.7893-2.852 0-.7957-.7892-.7957-2.0395 0-2.8287l10.0765-9.9945-.2048-.5938c-.2364-.6564-.3782-1.3128-.3782-2.0005 0-3.3289 2.6945-6.0013 6.0507-6.0013zm-17.0017.7657l2.8835 1.7895v1.2816l-.1655.164h-1.2841l-1.8042-2.8834.3703-.3517zm15.0005 12.878c.2049.0546.4097.1015.6146.1562l4.8295 4.7902c.7957.7892.7957 2.0395 0 2.8287-.7958.7893-2.0563.7893-2.852 0l-5.2156-5.173 2.6235-2.6021z" fill="#BC7962"/>
</svg>
